assets/images/light-body-bg.svg

<svg width="412" height="412" fill="none" xmlns="http://www.w3.org/2000/svg"><path fill="#000" fill-opacity=".06" d="m172.812 189 6.761 1.812-1.811 6.761-6.762-1.812zM129 339h7l2 6h-7l-2-6ZM297.455 191.967l-3.773-6.732 7.717.099-3.944 6.633ZM242.151 301.452l1.997-7.455 5.457 5.457-7.454 1.998Z"/><circle cx="149.5" cy="103.5" r="4.5" fill="#000" fill-opacity=".06"/><circle cx="20" cy="377" r="3" fill="#000" fill-opacity=".06"/><path d="m383 257 2.021 6.219h6.539l-5.291 3.843 2.021 6.219-5.29-3.843-5.29 3.843 2.021-6.219-5.291-3.843h6.539L383 257Z" fill="#000" fill-opacity=".06"/><path d="m218.5 48.8 16 12M69 8v12M328 108l3.327 19.721" stroke="#000" stroke-opacity=".06" stroke-width="2"/><path d="M351.5 34.5v-5.04l-2.756 4.22-8 12.25-1.515 2.32H351.5V34.5Z" stroke="#000" stroke-opacity=".06" stroke-width="3"/><circle cx="136" cy="30" r="9.5" stroke="#000" stroke-opacity=".06" stroke-width="3"/><path d="m236.129 127.012-1.405-1.605-1.035 1.865-5 9-.53.954.744.797 7 7.5 1.371 1.469 1.019-1.731 5-8.5.549-.934-.713-.815-7-8ZM47 280.5h-1.77l.29 1.747 3 18 .21 1.253h7.59l-.348-1.786-3.5-18-.236-1.214H47Z" stroke="#000" stroke-opacity=".06" stroke-width="3"/><circle cx="362" cy="367" r="5.5" stroke="#000" stroke-opacity=".06" stroke-width="3"/><path stroke="#000" stroke-opacity=".06" stroke-width="3" d="m28.515 67.525 7.625 8.632-8.632 7.626-7.625-8.633zM76.501 172.44l-.14 3.525 2.635-2.344 9-8 1.616-1.436-1.91-1.011-8.5-4.5-2.106-1.114-.095 2.38-.5 12.5ZM230.417 362.502l-3.164.176 2.141 2.336 5.5 6 1.426 1.555 1.001-1.858 3.5-6.5 1.269-2.357-2.673.148-9 .5ZM304.218 248.945l-.539-.678-.856.127-7.751 1.152-.856.127-.318.806-2.878 7.288-.318.805.539.679 4.872 6.136.539.678.857-.127 7.75-1.152.857-.128.318-.805 2.877-7.288.318-.806-.538-.678-4.873-6.136Z"/><path d="M393.985 175.545c-1.851-5.204-7.569-7.922-12.773-6.071-5.203 1.851-7.921 7.57-6.071 12.773M341 338l-14.061-13.939M111.68 235.733l-14 13M19.09 137.996l-10.999 1M191 253v19h-19" stroke="#000" stroke-opacity=".06" stroke-width="2"/></svg>

<svg width="412" height="412" viewBox="0 0 412 412" fill="none" xmlns="http://www.w3.org/2000/svg">
<rect x="172.812" y="189" width="7" height="7" transform="rotate(15 172.812 189)" fill="black" fill-opacity="0.06"/>
<path d="M129 339L136 339L138 345L131 345L129 339Z" fill="black" fill-opacity="0.06"/>
<path d="M297.455 191.967L293.682 185.235L301.399 185.334L297.455 191.967Z" fill="black" fill-opacity="0.06"/>
<path d="M242.151 301.452L244.148 293.997L249.605 299.454L242.151 301.452Z" fill="black" fill-opacity="0.06"/>
<circle cx="149.5" cy="103.5" r="4.5" fill="black" fill-opacity="0.06"/>
<circle cx="20" cy="377" r="3" fill="black" fill-opacity="0.06"/>
<path d="M383 257L385.021 263.219H391.56L386.269 267.062L388.29 273.281L383 269.438L377.71 273.281L379.731 267.062L374.44 263.219H380.979L383 257Z" fill="black" fill-opacity="0.06"/>
<path d="M218.5 48.8L234.5 60.8" stroke="black" stroke-opacity="0.06" stroke-width="3"/>
<path d="M69 7.99999V20" stroke="black" stroke-opacity="0.06" stroke-width="3"/>
<path d="M328 108L331.327 127.721" stroke="black" stroke-opacity="0.06" stroke-width="3"/>
<path d="M351.5 34.5L351.5 29.4598L348.744 33.6798L340.744 45.9298L339.229 48.25H342H350H351.5L351.5 46.75L351.5 34.5Z" stroke="black" stroke-opacity="0.06" stroke-width="3"/>
<circle cx="136" cy="30" r="9.5" stroke="black" stroke-opacity="0.06" stroke-width="3"/>
<path d="M236.129 127.012L234.724 125.407L233.689 127.272L228.689 136.272L228.159 137.226L228.903 138.023L235.903 145.523L237.274 146.992L238.293 145.261L243.293 136.761L243.842 135.827L243.129 135.012L236.129 127.012Z" stroke="black" stroke-opacity="0.06" stroke-width="3"/>
<path d="M47 280.5H45.2293L45.5204 282.247L48.5204 300.247L48.7293 301.5H50H54.5H56.3198L55.9724 299.714L52.4724 281.714L52.2364 280.5H51H47Z" stroke="black" stroke-opacity="0.06" stroke-width="3"/>
<circle cx="362" cy="367" r="5.5" stroke="black" stroke-opacity="0.06" stroke-width="3"/>
<rect x="28.515" y="67.5249" width="11.5178" height="11.5178" transform="rotate(48.5442 28.515 67.5249)" stroke="black" stroke-opacity="0.06" stroke-width="3"/>
<path d="M76.5012 172.44L76.3602 175.965L78.9965 173.621L87.9965 165.621L89.6117 164.185L87.7018 163.174L79.2018 158.674L77.0964 157.56L77.0012 159.94L76.5012 172.44Z" stroke="black" stroke-opacity="0.06" stroke-width="3"/>
<path d="M230.417 362.502L227.253 362.678L229.394 365.014L234.894 371.014L236.32 372.569L237.321 370.711L240.821 364.211L242.09 361.854L239.417 362.002L230.417 362.502Z" stroke="black" stroke-opacity="0.06" stroke-width="3"/>
<path d="M304.218 248.945L303.679 248.267L302.823 248.394L295.072 249.546L294.216 249.673L293.898 250.479L291.02 257.767L290.702 258.572L291.241 259.251L296.113 265.387L296.652 266.065L297.509 265.938L305.259 264.786L306.116 264.658L306.434 263.853L309.311 256.565L309.629 255.759L309.091 255.081L304.218 248.945Z" stroke="black" stroke-opacity="0.06" stroke-width="3"/>
<path d="M393.985 175.545C392.134 170.341 386.416 167.623 381.212 169.474C376.009 171.325 373.291 177.044 375.141 182.247" stroke="black" stroke-opacity="0.06" stroke-width="3"/>
<path d="M341 338L326.939 324.061" stroke="black" stroke-opacity="0.06" stroke-width="3"/>
<line x1="112.021" y1="236.099" x2="98.0207" y2="249.099" stroke="black" stroke-opacity="0.06" stroke-width="3"/>
<line x1="19.1358" y1="138.494" x2="8.1358" y2="139.494" stroke="black" stroke-opacity="0.06" stroke-width="3"/>
<path d="M191 253V272H172" stroke="black" stroke-opacity="0.06" stroke-width="3"/>
</svg>
